X:0233
M:2/4
L:1/8
Q:1/4=132
K:D
f2 fd|g2 g2|ec    cA      |d/c/d/e/ dd |\
f2 fd|g2 g2|ed    c/d/e/c/|d2       d2:|

